X: 230
T:Da Shaalds o Foula
G:jig
M:6/8
L:1/8
Q:3/8=120
K:GMix
% lydian/major/mixolydian pentatonic
D|E2G G2e|edB BAG|G2B A2B|G2A GED|
  E2G G2e|edB BAG|G2B A2B|d3  D2:|
D|edB ABd|edB ABd|g2B A2B|G2A GED|
  edB ABd|edB ABd|g2B A2B|d3  D2:|

Pibroch can have a greater degree of ambiguity.  While the pipes always
provide an A on the drones, this is not always the tonal centre of the
melody played over them, and this piece seems to have no tonal centre at
all, floating from one to the next in a repetitive pattern like that of
English bellringing.  The "words" at the right are in canntaireachd, the
syllabic notation used to record and transmit pipe music until about 1800;
they describe the pitches and the gracenotes, but not the exact rhythm of
the piece.

